X: 010786
T: Anything for John-Joe
S: "Music of Ireland - The Big Session" (DJ Taylor)
Z: B.Black
L: 1/8
M: 4/4
R: reel
K: D
F2 AF G2 BG|FGAF E2 DE|FGAF GABG|ABcA d4 :|
f3 g fede|fgag fd d2|1 f2 fg fedB|ABcA dcde :|2\
defg a4| ABcA d4 ||
